X: 15239
T: Girl I Left Behind Me, The
R: polka
M: 2/4
K: Amajor
f/g/|:ag fe|cB Bc|[M:3/4] A2 AA- AB|[M:2/4] cd- df/g/|
ag fe|cB Bc|[M:3/4] A2 AB- Bc|1 [M:2/4] A2 ce:|2 [M:2/4] A2 A2||
|:ce fg|ae cA|ce fg|a2 gf/g/|
fe cB|cA F2|AB- Bc|1 A2 A2:|2 A2 ce||

